src/svg/icons/lightbulb.svg

<svg xmlns="http://www.w3.org/2000/svg" width="512" height="512"><path d="M299.823 364.41h-87.646c-6.144 0-11.124 4.98-11.124 11.123s4.98 11.122 11.124 11.122h87.647c6.143 0 11.123-4.979 11.123-11.122s-4.98-11.123-11.124-11.123zm-2.001 37.033h-83.645c-6.143 0-11.123 4.98-11.123 11.123s4.98 11.123 11.123 11.123h83.646c6.142 0 11.122-4.98 11.122-11.123s-4.98-11.123-11.123-11.123zm-83.072 36.518C236.406 457.979 238.636 462 247.28 462h16.65c8.45 0 10.532-3.727 33.319-24.039H214.75zm167.871-266.507c0 75.31-64.767 117.514-64.767 176.943h-29.493c.025-73.246 64.232-111.827 64.232-176.943 0-121.891-193.188-122.081-193.188 0 0 65.057 63.094 101.976 64.559 176.943h-29.819c0-59.43-64.767-101.634-64.767-176.943.001-161.856 253.243-162.021 253.243 0zm-168.535 16.628l-24.814-3.22c5.41-41.692 31.35-72.57 73.533-80.384l4.557 24.604c-40.67 7.534-50.836 40.199-53.276 59z"/></svg>

<?xml version="1.0" encoding="utf-8"?>

<!-- License Agreement at http://iconmonstr.com/license/ -->

<!DOCTYPE svg PUBLIC "-//W3C//DTD SVG 1.1//EN" "http://www.w3.org/Graphics/SVG/1.1/DTD/svg11.dtd">
<svg version="1.1" xmlns="http://www.w3.org/2000/svg" xmlns:xlink="http://www.w3.org/1999/xlink" x="0px" y="0px"
	 width="512px" height="512px" viewBox="0 0 512 512" enable-background="new 0 0 512 512" xml:space="preserve">
<path id="light-bulb-12-icon" d="M299.823,364.41h-87.646c-6.144,0-11.124,4.98-11.124,11.123s4.98,11.122,11.124,11.122h87.647
	c6.143,0,11.123-4.979,11.123-11.122S305.967,364.41,299.823,364.41z M297.822,401.443h-83.645c-6.143,0-11.123,4.98-11.123,11.123
	s4.98,11.123,11.123,11.123h83.646c6.142,0,11.122-4.98,11.122-11.123S303.965,401.443,297.822,401.443z M214.75,437.961
	C236.406,457.979,238.636,462,247.28,462h16.65c8.45,0,10.532-3.727,33.319-24.039H214.75z M382.621,171.454
	c0,75.31-64.767,117.514-64.767,176.943h-29.493c0.025-73.246,64.232-111.827,64.232-176.943c0-121.891-193.188-122.081-193.188,0
	c0,65.057,63.094,101.976,64.559,176.943h-29.819c0-59.43-64.767-101.634-64.767-176.943
	C129.379,9.598,382.621,9.433,382.621,171.454z M214.086,188.082l-24.814-3.22c5.41-41.692,31.35-72.57,73.533-80.384l4.557,24.604
	C226.692,136.616,216.526,169.281,214.086,188.082z"/>
</svg>
